docs/.gitbook/assets/icon-network-16@dark.svg

<svg width="32" height="32" viewBox="0 0 16 16" fill="none" xmlns="http://www.w3.org/2000/svg">
<rect x="0" y="0" width="16" height="16" fill="#181c1f"/>
<path fill-rule="evenodd" clip-rule="evenodd" d="M4.10045 2.29059C4.39901 2.00348 4.40829 1.52869 4.12117 1.23013C3.83406 0.931574 3.35928 0.922296 3.06072 1.20941C0.313095 3.8517 0.313095 8.1483 3.06072 10.7906C3.35928 11.0777 3.83406 11.0684 4.12117 10.7699C4.40829 10.4713 4.39901 9.99652 4.10045 9.70941C1.96652 7.65728 1.96652 4.34272 4.10045 2.29059ZM12.9393 1.20941C12.6407 0.922296 12.1659 0.931574 11.8788 1.23013C11.5917 1.52869 11.601 2.00348 11.8996 2.29059C14.0335 4.34272 14.0335 7.65728 11.8996 9.70941C11.601 9.99652 11.5917 10.4713 11.8788 10.7699C12.1659 11.0684 12.6407 11.0777 12.9393 10.7906C15.6869 8.1483 15.6869 3.8517 12.9393 1.20941ZM6.22659 4.28591C6.52257 3.99613 6.52759 3.52128 6.23781 3.22531C5.94803 2.92933 5.47318 2.92431 5.17721 3.21409C3.6076 4.75086 3.6076 7.24915 5.17721 8.78591C5.47318 9.07569 5.94803 9.07067 6.23781 8.77469C6.52759 8.47872 6.52257 8.00387 6.22659 7.71409C5.2578 6.76557 5.2578 5.23443 6.22659 4.28591ZM10.8228 3.21409C10.5268 2.92431 10.052 2.92933 9.76219 3.22531C9.47241 3.52128 9.47743 3.99613 9.77341 4.28591C10.7422 5.23443 10.7422 6.76557 9.77341 7.71409C9.47743 8.00387 9.47241 8.47872 9.76219 8.77469C10.052 9.07067 10.5268 9.07569 10.8228 8.78591C12.3924 7.24915 12.3924 4.75086 10.8228 3.21409ZM8.75 10.75C8.75 10.3358 8.41421 10 8 10C7.58579 10 7.25 10.3358 7.25 10.75V14.25C7.25 14.6642 7.58579 15 8 15C8.41421 15 8.75 14.6642 8.75 14.25V10.75ZM8 5C7.44772 5 7 5.44772 7 6C7 6.55229 7.44772 7 8 7C8.55228 7 9 6.55229 9 6C9 5.44772 8.55228 5 8 5Z" fill="#fff"/>
</svg>

<svg xmlns="http://www.w3.org/2000/svg" width="32" height="32" fill="none" viewBox="0 0 16 16"><path fill="#181c1f" d="M0 0h16v16H0z"/><path fill="#fff" fill-rule="evenodd" d="M4.1 2.29a.75.75 0 1 0-1.04-1.08 6.6 6.6 0 0 0 0 9.58.75.75 0 0 0 1.04-1.08c-2.133-2.053-2.133-5.367 0-7.42m8.84-1.08a.75.75 0 0 0-1.04 1.08c2.133 2.053 2.133 5.367 0 7.42a.75.75 0 1 0 1.04 1.08 6.6 6.6 0 0 0 0-9.58M6.226 4.285a.75.75 0 1 0-1.05-1.072 3.885 3.885 0 0 0 0 5.572.75.75 0 1 0 1.05-1.072 2.385 2.385 0 0 1 0-3.428m4.596-1.072a.75.75 0 0 0-1.05 1.072c.97.948.97 2.48 0 3.428a.75.75 0 1 0 1.05 1.072 3.885 3.885 0 0 0 0-5.572M8.75 10.75a.75.75 0 0 0-1.5 0v3.5a.75.75 0 0 0 1.5 0zM8 5a1 1 0 1 0 0 2 1 1 0 0 0 0-2" clip-rule="evenodd"/></svg>
